X: 33937
T: Red-Haired Lass, The
R: reel
M: 4/4
K: Amajor
|EAAB ABcB|ABcA BF F2|EAAB ABce|faec d2 cB|
A3B ABcB|ABcA BF F2|EA (3AcA ABce|faec d2 cd|
e2 ae feaf|eaec d2 cd|e2 ae fefb|afec d2 cd|
e2 ae feaf|eaec d2 cB|c3B cefb|afec dBcA|

